X: 4
T: Madam Mc. Keenys Scotch-measure
%R: _
B: "A Collection of Original Scotch-Tunes", Henry Playford, 1700, ed. p.2 #4
F: http://imslp.org/wiki/A_Collection_of_Original_Scotch_Tunes_(Various)
Z: 2015 John Chambers <jc:trillian.mit.edu>
M: C|
L: 1/8
K: C
% - - - - - - - - - - - - - - - - - - - - - - - - - - - - -
ED |\
C3 E (GA) (GE) | G2 c2 c3 G |\
AB cd (c/d/e) d>c | d2 D2 D2 E>D |\
C3 E (GA) (GE) | G2 c2 c3 G |
AB cA dcBd | c2 C2 C2 |] cd |\
edcA BA BG | A2 c2 c3 E |\
FGAG AGFE | D2 d2 d2 cd |
edce dcBd |\
[1 cB AG AGFE | DEFD GFED | C2 c2 c2 :|\
[2 cB AG AG Fe | fgfe dcBd | c2 C2 C2 |]
% - - - - - - - - - - - - - - - - - - - - - - - - - - - - -

%%sep 1 1 500
%%sep 1 1 500

